!!!OTL: Hasenleid.
!!!OTL-incipit: SOBALD DER JAEGER GEHT AUF DIE JAGD
!!!ARE: Europa, Mitteleuropa, Deutschland, Rhein
!!!SCT: Z1288
!!!YEM: Copyright 1995, estate of Helmut Schaffrath.
**kern	**text
*ICvox	*
*M4/4	*
*met(c)	*
*k[f#]	*
*G:	*
!LO:TX:a:t=Vom Rheine.	!
{4d	So-
=1	=1
4.g	-bald
8g	der
(>4a	Jä-
8g)	.
8g	-ger
=2	=2
4a	geht
16gL	auf
16f#J	.
16gL	die
16aJ	.
4b/;	Jagd,
8r}	.
{8d	nimmt
=3	=3
4g	er
4g	mich
4a	wohl
8gL	in
8f#J	.
=4	=4
4.g	Acht!
8a	.
4b/;	.
8r}	.
{8d	bei
=5	=5
8.g	Ta-
16g	-gen
8.f#	und
16f#	bei
4e	Nachten,
4d	.
=6	=6
8.g	nach
16g	mir
8.f#	thut
16f#	er
4e	trach-
8d}	-ten,
{8d	dann
=7	=7
8d	muß
8g	ich
8g	bü-
8g	-ßen
4g	ein
8r	.
8a	das
=8	=8
8b/	jun-
8b/	-ge
8cc/	Le-
8cc/	-ben
4dd/	mein,
8r}	.
{8b/	was
=9	=9
8cc/	bin
8ee/	ich
8a	doch
8cc/	ein
4.b/	ar-
8g	-mes
=10	=10
4.a	Hä-
8f#	-ſe-
4g;}	-lein!
==	==
!!!AGN: Jaeger - Lied
!!!ONB: ESAC (Essen Associative Code) Database: ZUCCAL
!!!AMT: simple quadruple
!!!AIN: vox
!!!EED: Helmut Schaffrath
!!!EEV: 1.0
!!!GTL: VII. Jagd-, Bunkt- und GewerksLieder.
!!!URL-scan: https://www.digitale-sammlungen.de/de/view/bsb11160573?page=527
!!!ENC: Anna Maria Matuszewska
!!!EEV: 2025/02/06
*-	*-
